!!!!SEGMENT: 074-1c-LW-008.krn
!!!COM: Chopin, Fryderyk
!!!OTL: My Beloved. (Mein Geliebter.)
!!!OPS: Op. 74
!!!PTL: 17 | POLISH SONGS | BY | WITWICKI, ZALESKI, MICKIEWICZ, ETC, | FOR | A SOPRANO OR TENOR VOICE | WITH ACCOMPANIMENT FOR THE | Pianoforte
!!!PPR: Stanley Lucas, Weber & Co.
!!!PPP: London
!!!AGN: Song
!!!NIFC-rismID: BRAK
!!!NIFC-shelfmark: PL-Wbfc 6139/n
!!!OMD: ALLEGRO MODERATO. M.M. [quarter] = 96.
!!!system-decoration: (s1){(s2,s3)}
**kern	**kern	**fing	**dynam	**kern	**text	**dynam
*part2	*part2	*part2	*part2	*part1	*part1	*part1
*staff3	*staff2	*	*	*staff1	*	*
*	*I"PIANO.	*	*	*	*	*
*clefF4	*clefG2	*	*	*clefG2	*	*
*k[f#c#]	*k[f#c#]	*	*	*k[f#c#]	*	*
*D:	*D:	*	*	*D:	*	*
*M3/4	*M3/4	*	*	*M3/4	*	*
*MM96	*MM96	*	*	*MM96	*	*
*>[A,B,B,C]	*>[A,B,B,C]	*>[A,B,B,C]	*>[A,B,B,C]	*>[A,B,B,C]	*>[A,B,B,C]	*>[A,B,B,C]
*>A	*>A	*>A	*>A	*>A	*>A	*>A
4r	4a	.	.	4r	.	.
=1!|:	=1!|:	=1!|:	=1!|:	=1!|:	=1!|:	=1!|:
*>B	*>B	*>B	*>B	*>B	*>B	*>B
!	!LO:TX:t=P:w źródle brak pięciolinii partii wokalnej w pierwszym systemie:problem	!	!	!	!	!
4AA	(>8bbL	4	f	2.r	.	.
.	8aa	3	.	.	.	.
4g 4e 4A	8gg	4	.	.	.	.
.	8cc#	.	.	.	.	.
4AA#X	8ff# 8g	.	.	.	.	.
.	8eeJ)	.	.	.	.	.
=2	=2	=2	=2	=2	=2	=2
4BB	(<8ddL	.	.	2.r	.	.
.	8f#	.	.	.	.	.
4d 4B	8cc#	.	.	.	.	.
.	8b	.	.	.	.	.
4r	8a 8fn	.	.	.	.	.
.	8g#XJ)	.	.	.	.	.
=3	=3	=3	=3	=3	=3	=3
4AA	8bL 8f#X	.	.	2.r	.	.
.	8aT>	.	.	.	.	.
4f# 4d 4A	8g#X	.	.	.	.	.
.	8a	.	.	.	.	.
4c# 4A	8ee 8gn	.	.	.	.	.
.	8ff#J 8a	.	.	.	.	.
=4	=4	=4	=4	=4	=4	=4
*^	*	*	*	*	*	*
4rd	2.D	4dd 4f#	.	.	2.r	.	.
4A	.	4r	.	.	.	.	.
4A	.	4f#	.	.	.	.	.
*v	*v	*	*	*	*	*	*
!!LO:LB:g=original
=5	=5	=5	=5	=5	=5	=5
*	*	*	*	*	*^	*
*	*	*	*	*	*	*^	*
*	*	*	*	*	*	*	*^	*
*	*	*	*	*	*	*	*	*^	*
*	*	*	*	*	*	*	*	*	*^	*
!	!	!	!	!LO:TX:a:t=P:w źródle pod angielskim tekstem alternatywna wersja tekstu w języku niemieckim (czcionka italic):problem	!	!	!	!	!	!	!
2.D	4r	.	mf	8.f#	1. Life	2. In	3. In	1. Jung	2. Und	3. Und	.
.	.	.	.	16e#X	so	my	the	und	im	beim	.
!	!	!	!	!	!	!	!	!	!	!	!LO:HP:a
.	4f# 4d 4A	.	.	4f#	fresh	spi-	dance	feu-	In-	Tan-	<
.	4f# 4d 4A	.	.	4g	and	-rit	what	-rig	-nern,	-ze,	[
=6	=6	=6	=6	=6	=6	=6	=6	=6	=6	=6	=6
2.C#	4r	.	.	4a	ar-	what	joy,	voll	welch	dies	.
.	4e 4A	.	.	4.b^>	-dent	tu-	when	Le-	Re-	Schmie-	.
.	4a 4e 4A	.	.	.	.	.	.	.	.	.	.
.	.	.	.	8a	to	-mult,	up-	-ben,	-gen,	-gen,	.
=7	=7	=7	=7	=7	=7	=7	=7	=7	=7	=7	=7
8CnL	8AL	.	.	8a	me	when	-on	mir	blickt	ihm	.
8AAJ	8cnJ	.	.	8ccn	for	his	his	auf	sein	am	.
!	!	!	!	!	!	!	!	!LO:TX:a:t=P:w źródle brak myślnika pomiędzy sylabami:problem	!	!	!
2BB	4r	.	.	4.b	e-	eye	breast	im-	Aug’	Her-	.
.	4b 4d#X 4A	.	.	.	.	.	.	.	.	.	.
.	.	.	.	8f#	-ver	on	my	-mer	mir	-zen	.
=8	=8	=8	=8	=8	=8	=8	=8	=8	=8	=8	=8
!	!	!	!	!LO:TX:t=P:note-head-side tuplet number:problem	!	!	!	!	!	!	!
4EE	4r	.	.	(<12aL	is	me	head	er-	ent-	zu	.
.	.	.	.	12b	.	.	.	.	.	.	.
.	.	.	.	12aJ)	.	.	.	.	.	.	.
4E	4g 4e 4B	.	.	4.g	giv-	turn-	fall-	-ge-	-ge-	lie-	.
4E	4g 4d 4B-X^<	.	.	.	.	.	.	.	.	.	.
.	.	.	.	8f#	-en,	-eth;	-eth!	-ben,	-gen,	-gen,	.
*	*	*	*	*	*	*	*	*	*v	*v	*
*	*	*	*	*	*	*	*	*v	*v	*
*	*	*	*	*	*	*	*v	*v	*
*	*	*	*	*	*	*v	*v	*
*	*	*	*	*	*v	*v	*
!!LO:LB:g=original
=9	=9	=9	=9	=9	=9	=9
*	*	*	*	*	*^	*
*^	*	*	*	*	*	*	*
!	!	!	!	!	!LO:TX:a:t=P:w źródle "1.2.3." jest pojedyńcze dla tekstu w języku angielskim i niemieckim:problem	!	!	!
!	!	!	!	!	!	!	!	!LO:HP:a
4rA	2.AA	4r	.	.	8.e	1.2.3. Rav-	1.2.3. Schwar-	<
.	.	.	.	.	16a	-en	-zes	.
.	.	.	.	.	(<8qcc#/	.	.	.
4E	.	4g 4c# 4A	.	.	4b)/	locks,	Bärt-	[
4E	.	4g 4c# 4A	.	.	4a	face	-chen,	.
*v	*v	*	*	*	*	*	*	*
=10	=10	=10	=10	=10	=10	=10	=10
!	!	!	!	!	!	!	!LO:HP:a
2.D	4r	.	.	8g#X	fair	schön’	<
.	.	.	.	8a	to	Ge-	[
!	!	!	!	!	!	!	!LO:DY:a:rj
!	!	!	!LO:DY:rj	!	!	!	!
.	2f# 2d 2A	.	sf	2dd	see,	-sicht,	sf
=11	=11	=11	=11	=11	=11	=11	=11
2AA	4r	.	.	8.f#	tall	schlank	.
.	.	.	.	16g	and	und	.
.	(>4f# 4d 4A	.	.	4a	strong,	keck,	.
4AA	4fn 4d 4G#X	.	.	4b/	how	mehr	.
=12	=12	=12	=12	=12	=12	=12	=12
4AA	4e 4c# 4Gn	.	.	8a	dear	will	.
.	.	.	.	8e	is	ich	.
4DD	4d 4F#	.	.	4f#	he!	nicht;	.
4rGG	4a 4A)	.	.	4r	.	.	.
!!LO:LB:g=original
=13	=13	=13	=13	=13	=13	=13	=13
!	!	!	!	!	!	!LO:TX:t=P:w źródle brak myślnika rozdzielającego sylaby:problem	!
2.C# 2.CC#	4r	.	.	8a	Rav-	schwar-	.
.	.	.	.	8a	-en	-zes	.
.	4g 4e 4A	.	<	4b/	locks,	Bärt-	.
.	4a 4g 4e 4A	.	.	4a	face	-chen,	.
=14	=14	=14	=14	=14	=14	=14	=14
!	!	!	!	!	!	!	!LO:HP:a
2D 2DD;<	4r	.	.	8g#X	fair	schön’	<
.	.	.	.	8a	to	Ge-	[
!	!	!	!LO:DY:rj	!	!	!	!LO:DY:a:rj
.	4a;> 4f# 4d 4A	.	sf	[>2ff#;>	see,...	-sicht,..	sf
4r	4r	.	.	.	.	.	.
=15	=15	=15	=15	=15	=15	=15	=15
!LO:N:vis=2	!	!	!	!	!	!	!
2.AA/	4r	.	.	8ff#L]	...	...	.
.	.	.	.	8eeJ	...	...	.
.	4f# 4d 4A	.	.	8dd	tall	schlank	.
.	.	.	.	8f#	and	und	.
.	4f# 4d 4A	.	>	8cc#	strong,	keck,	.
.	.	.	.	8b	how	mehr	.
=16	=16	=16	=16	=16	=16	=16	=16
4AA	4g 4c# 4A	.	.	8a	dear	will	.
.	.	.	.	8c#	is	ich	.
4D	4f# 4d 4A	.	.	4d	he!	nicht.	.
4BB	4r	.	.	4r	.	.	.
*	*	*	*	*	*v	*v	*
!!LO:PB:g=original
=17	=17	=17	=17	=17	=17	=17
*	*	*	*	*	*^	*
*	*	*	*	*	*	*^	*
*	*	*	*	*	*	*	*^	*
*	*	*	*	*	*	*	*	*^	*
*	*	*	*	*	*	*	*	*	*^	*
!	!	!	!	!LO:TX:t=P:w źródle grupa niemiarowa połączona łukiem, bez klamry:problem	!	!	!	!	!	!	!
!	!	!	!LO:DY:rj	!	!	!	!	!	!	!	!
2.E	4r	.	p	(>12bL	O!	Ev'-	But	Will	Sei-	Welch	.
.	.	.	.	12cc#J	.	.	.	.	.	.	.
.	.	.	.	12b)	what	-ry	what	er	-ne	ein	.
.	4e 4d	.	.	4a	grief,	word	bliss	kom-	Wor-	Glück	.
.	4e 4d	.	.	4b\	if	that	will	-men,	-te,	erst	.
=18	=18	=18	=18	=18	=18	=18	=18	=18	=18	=18	=18
*^	*	*	*	*	*	*	*	*	*	*	*
4rA	2.AA	4r	.	.	4cc#	from	he	mine	bleibt	sein	auf	.
2E	.	4e 4c#	.	.	4.a	mine	speak-	e-	lan-	Sin-	Er-	.
.	.	4e 4c#	.	.	.	.	.	.	.	.	.	.
.	.	.	.	.	8e	his	-eth	-qual,	-ge,	-gen	-den,	.
*v	*v	*	*	*	*	*	*	*	*	*	*	*
=19	=19	=19	=19	=19	=19	=19	=19	=19	=19	=19	=19
2.EE	4r	.	.	8b	faith-	deep	when	wird	tief	wenn	.
.	.	.	.	8b	-ful	with-	his	mir,	hin-	wir	.
.	4e 4d 4F#	.	.	4.a	heart	-in	wife	ach,	-ein	Mann	.
.	4e 4d 4G#X	.	.	.	.	.	.	.	.	.	.
.	.	.	.	8b	was	my	he	so	in's	und	.
=20	=20	=20	=20	=20	=20	=20	=20	=20	=20	=20	=20
*^	*	*	*	*	*	*	*	*	*	*	*
4rA	2.AA 2.AAA	4r	.	.	4cc#	e'er	heart	me	sehr	Herz	Frau	.
!	!	!LO:TX:b:Bi:t=riten&colon;	!	!	!LO:TX:a:Bi:t=riten&colon;	!	!	!	!	!	!	!
2E	.	2a 2e 2c# 2A	.	.	(<8aL	riv-	burn-	call-	ban-	klin-	wer-	.
.	.	.	.	.	8g#X	.	.	.	.	.	.	.
.	.	.	.	.	8gnJ)	.	.	.	.	.	.	.
.	.	.	.	.	8f#	-en.	-eth.	-eth.	-ge.	gen.	-den.	.
*v	*v	*	*	*	*	*	*	*	*	*	*	*
*	*	*	*	*	*	*	*	*	*v	*v	*
*	*	*	*	*	*	*	*	*v	*v	*
*	*	*	*	*	*	*	*v	*v	*
*	*	*	*	*	*	*v	*v	*
*	*	*	*	*	*v	*v	*
!!LO:LB:g=original
=21	=21	=21	=21	=21	=21	=21
*	*	*	*	*	*^	*
!	!	!	!	!	!	!LO:TX:t=P:w źródle brak myślnika rozdzielającego sylaby:problem	!
!	!LO:TX:b:Bi:t=a tempo.	!	!	!LO:TX:a:Bi:t=a tempo.	!	!	!
2.AA	4r	.	.	8.e	Rav-	schwar-	.
.	.	.	.	16a	-ven	-zes	.
.	.	.	.	8qcc#/	.	.	.
.	4g 4e 4A	.	.	4b	locks,	Bärt-	.
.	4g 4e 4A	.	.	4a	face	-chen,	.
=22	=22	=22	=22	=22	=22	=22	=22
2D	4r	.	.	8g#X	fair	schön’	.
.	.	.	.	8a	to	Ge-	.
.	4f# 4d 4A	.	sf	2dd	see,	-sicht,	sf
4r	4r	.	.	.	.	.	.
=23	=23	=23	=23	=23	=23	=23	=23
2AA	4r	.	.	8.f#	tall	schlank	.
.	.	.	.	16gn	and	und	.
.	(>4f# 4d 4A	.	.	4a	strong,	keck,	.
4AA	4fn 4d 4G#X	.	.	4b	how	mehr	.
=24	=24	=24	=24	=24	=24	=24	=24
4AA	4e 4c# 4Gn	.	.	8a	dear	will	.
.	.	.	.	8e	is	ich	.
4AA#	4e 4c# 4F#	.	.	4f#	he!	nicht;	.
4BB	4d 4B 4F#)	.	.	4r	.	.	.
!!LO:LB:g=original
=25	=25	=25	=25	=25	=25	=25	=25
!	!	!	!	!	!	!LO:TX:t=P:w źródle brak myślnika rozdzielającego sylaby:problem	!
2.C# 2.CC#	4r	.	.	8a	Rav-	schwar-	.
.	.	.	.	8a	-en	-zes	.
.	4a 4g 4e 4A	.	.	4b	locks,	Bärt-	.
.	4a 4g 4e 4A	.	.	4a	face	-chen,	.
=26	=26	=26	=26	=26	=26	=26	=26
2Cn 2CCn	4r	.	.	8g#X	fair	schön’	.
.	.	.	.	8a	to	Ge-	.
!	!LO:TX:b:Bi:t=rit&colon;	!	!	!LO:TX:a:Bi:t=ten&colon;	!	!	!
.	4a 4f# 4e 4A	.	.	[>2ff#	see,...	-sicht,..	.
4BB 4BBB	4b 4f# 4d# 4B 4A^<	.	.	.	.	.	.
=27	=27	=27	=27	=27	=27	=27	=27
4EE	4g# 4dn 4B	.	.	8ff#L]	...	...	.
.	.	.	.	8eeJ	...	...	.
4FF#	4a 4d 4A	.	.	8dd	tall	schlank	.
.	.	.	.	8f#	and	und	.
4GG	4gn 4e 4B	.	.	8cc#	strong,	keck,	.
.	.	.	.	8b	how	mehr	.
=28	=28	=28	=28	=28	=28	=28	=28
4AA	4g 4c# 4A	.	.	8a	dear	will	.
.	.	.	.	8c#	is	ich	.
4D 4DD	4f# 4d 4A	.	.	4d	he!	nicht.	.
4r	4a	.	.	4r	.	.	.
*	*	*	*	*	*v	*v	*
!!LO:LB:g=original
=29:|!	=29:|!	=29:|!	=29:|!	=29:|!	=29:|!	=29:|!
*>C	*>C	*>C	*>C	*>C	*>C	*>C
!	!LO:TX:t=P:w źródle brak pięciolinii partii wokalnej w ostatnim systemie:problem	!	!	!	!	!
4AA	(>8bbL	.	f	2.r	.	.
.	8aa	.	.	.	.	.
4g 4e 4A	8gg	.	.	.	.	.
.	8cc#	.	.	.	.	.
4AA#X	8ff# 8g	.	.	.	.	.
.	8eeJ)	.	.	.	.	.
=30	=30	=30	=30	=30	=30	=30
4BB	(<8ddL	.	.	2.r	.	.
.	8f#	.	.	.	.	.
4d 4B	8cc#	.	.	.	.	.
.	8b	.	.	.	.	.
4r	8a 8fn	.	.	.	.	.
.	8g#XJ)	.	.	.	.	.
=31	=31	=31	=31	=31	=31	=31
4AA	8bL 8f#X	.	.	2.r	.	.
.	8aT>	.	.	.	.	.
4f# 4d 4A	8g#X	.	.	.	.	.
.	8a	.	.	.	.	.
4c# 4A	8ee 8gn	.	.	.	.	.
.	8ff#J 8a	.	.	.	.	.
=32	=32	=32	=32	=32	=32	=32
*^	*	*	*	*	*	*
4rB	2D	4dd 4f#	.	.	2.r	.	.
4A	.	4r	.	.	.	.	.
4r	4ryy	4r	.	.	.	.	.
*v	*v	*	*	*	*	*	*
==	==	==	==	==	==	==
*-	*-	*-	*-	*-	*-	*-
!!title: @{OTL}; @{OPS} @{ONM} publisher: @{PPR}
!!!RDF**kern: > = above
!!!RDF**kern: < = below
!!!RDF**kern: N = linked
!!!RDF**dynam: > = "dim:", fontstyle="bold-italic"
!!!RDF**dynam: < = "cres:", fontstyle="bold-italic"
!!!ENC: Wojciech Jakubiak-Danek
!!!END: 2020-02-10
!!!EED: Emilia Ziętek
!!!EST: 2020-02-24
!!!rism-genre: My Beloved
!!!rism-key: D major
!!!rism-opus: Op. 74, No. 8
!!!rism-title: My Beloved in D major Op. 74 No. 8
